;START_OF_HEADER
;HEADER_VERSION:0.1
;FLAVOR:Griffin
;GENERATOR.NAME:Cura_SteamEngine
;GENERATOR.VERSION:4.8.0
;GENERATOR.BUILD_DATE:2020-11-10
;TARGET_MACHINE.NAME:Ultimaker 3
;EXTRUDER_TRAIN.0.INITIAL_TEMPERATURE:205
;EXTRUDER_TRAIN.0.MATERIAL.VOLUME_USED:7902
;EXTRUDER_TRAIN.0.MATERIAL.GUID:506c9f0d-e3aa-4bd4-b2d2-23e2425b1aa9
;EXTRUDER_TRAIN.0.NOZZLE.DIAMETER:0.4
;EXTRUDER_TRAIN.0.NOZZLE.NAME:AA 0.4
;BUILD_PLATE.TYPE:glass
;BUILD_PLATE.INITIAL_TEMPERATURE:60
;PRINT.TIME:8309
;PRINT.GROUPS:1
;PRINT.SIZE.MIN.X:9
;PRINT.SIZE.MIN.Y:6
;PRINT.SIZE.MIN.Z:0.27
;PRINT.SIZE.MAX.X:143.795
;PRINT.SIZE.MAX.Y:132.748
;PRINT.SIZE.MAX.Z:22.17
;END_OF_HEADER
;Generated with Cura_SteamEngine 4.8.0
T0
M82 ;absolute extrusion mode

G92 E0
M109 S205
G0 F15000 X9 Y6 Z2
G280
G1 F1500 E-6.5
;LAYER_COUNT:220
;LAYER:0
M107
M204 S625
M205 X6 Y6
G1 F600 Z2.27
G0 F4285.7 X91.325 Y84.405 Z2.27
M204 S500
M205 X5 Y5
;TYPE:SKIRT
G1 F600 Z0.27
G1 F1500 E0
G1 F1200 X91.448 Y84.282 E0.00309
G1 X92.002 Y83.784 E0.01633
G1 X92.606 Y83.349 E0.02957
G1 X93.253 Y82.982 E0.04279
G1 X93.935 Y82.685 E0.05601
G1 X94.646 Y82.464 E0.06925
G1 X95.376 Y82.32 E0.08247
G1 X96.348 Y82.252 E0.09979
G1 X136.742 Y82.252 E0.81784
G1 X137.485 Y82.292 E0.83106
G1 X138.22 Y82.411 E0.8443
G1 X138.938 Y82.609 E0.85754
G1 X139.63 Y82.882 E0.87076
G1 X140.289 Y83.228 E0.88399
G1 X140.907 Y83.643 E0.89722
G1 X141.642 Y84.282 E0.91454
G1 X141.765 Y84.405 E0.91763
G1 X142.263 Y84.959 E0.93087
G1 X142.698 Y85.563 E0.9441
G1 X143.065 Y86.21 E0.95732
G1 X143.362 Y86.892 E0.97055
G1 X143.583 Y87.603 E0.98378
G1 X143.727 Y88.333 E0.99701
G1 X143.795 Y89.305 E1.01433
G1 X143.795 Y125.695 E1.6612
G1 X143.755 Y126.438 E1.67442
G1 X143.636 Y127.173 E1.68766
G1 X143.438 Y127.891 E1.7009
G1 X143.165 Y128.583 E1.71412
G1 X142.819 Y129.242 E1.72735
G1 X142.404 Y129.86 E1.74059
G1 X141.765 Y130.595 E1.7579
G1 X141.642 Y130.718 E1.76099
G1 X141.088 Y131.216 E1.77423
G1 X140.484 Y131.651 E1.78746
G1 X139.837 Y132.018 E1.80069
G1 X139.155 Y132.315 E1.81391
G1 X138.444 Y132.536 E1.82715
G1 X137.714 Y132.68 E1.84037
G1 X136.742 Y132.748 E1.85769
G1 X96.348 Y132.748 E2.57573
G1 X95.605 Y132.708 E2.58896
G1 X94.87 Y132.589 E2.6022
G1 X94.152 Y132.391 E2.61544
G1 X93.46 Y132.118 E2.62866
G1 X92.801 Y131.772 E2.64189
G1 X92.183 Y131.357 E2.65512
G1 X91.448 Y130.718 E2.67244
G1 X91.325 Y130.595 E2.67553
G1 X90.827 Y130.041 E2.68877
G1 X90.392 Y129.437 E2.702
G1 X90.025 Y128.79 E2.71522
G1 X89.728 Y128.108 E2.72845
G1 X89.507 Y127.397 E2.74168
G1 X89.363 Y126.667 E2.75491
G1 X89.295 Y125.695 E2.77223
G1 X89.295 Y89.305 E3.4191
G1 X89.335 Y88.562 E3.43232
G1 X89.454 Y87.827 E3.44556
G1 X89.652 Y87.109 E3.4588
G1 X89.925 Y86.417 E3.47202
G1 X90.271 Y85.758 E3.48525
G1 X90.686 Y85.14 E3.49849
G1 X91.325 Y84.405 E3.5158
M204 S625
M205 X6 Y6
G0 F4285.7 X91.622 Y84.702
M204 S500
M205 X5 Y5
G1 F1200 X91.745 Y84.579 E3.51889
G1 X92.282 Y84.098 E3.53171
G1 X92.87 Y83.679 E3.54454
G1 X93.5 Y83.328 E3.55736
G1 X94.165 Y83.049 E3.57018
G1 X94.857 Y82.845 E3.583
G1 X95.567 Y82.719 E3.59582
G1 X96.348 Y82.672 E3.60973
G1 X136.742 Y82.672 E4.32777
G1 X137.462 Y82.712 E4.34059
G1 X138.174 Y82.831 E4.35342
G1 X138.868 Y83.029 E4.36625
G1 X139.535 Y83.302 E4.37906
G1 X140.169 Y83.647 E4.39189
G1 X140.76 Y84.06 E4.40471
G1 X141.345 Y84.579 E4.41861
G1 X141.468 Y84.702 E4.4217
G1 X141.949 Y85.239 E4.43452
G1 X142.368 Y85.827 E4.44735
G1 X142.719 Y86.457 E4.46017
G1 X142.998 Y87.122 E4.47299
G1 X143.202 Y87.814 E4.48582
G1 X143.328 Y88.524 E4.49863
G1 X143.375 Y89.305 E4.51254
G1 X143.375 Y125.695 E5.15941
G1 X143.335 Y126.415 E5.17223
G1 X143.216 Y127.127 E5.18506
G1 X143.018 Y127.821 E5.19789
G1 X142.745 Y128.488 E5.2107
G1 X142.4 Y129.122 E5.22353
G1 X141.987 Y129.713 E5.23635
G1 X141.468 Y130.298 E5.25025
G1 X141.345 Y130.421 E5.25334
G1 X140.808 Y130.902 E5.26616
G1 X140.22 Y131.321 E5.27899
G1 X139.59 Y131.672 E5.29181
G1 X138.925 Y131.951 E5.30463
G1 X138.233 Y132.155 E5.31745
G1 X137.523 Y132.281 E5.33027
G1 X136.742 Y132.328 E5.34418
G1 X96.348 Y132.328 E6.06222
G1 X95.628 Y132.288 E6.07504
G1 X94.916 Y132.169 E6.08787
G1 X94.222 Y131.971 E6.1007
G1 X93.555 Y131.698 E6.11351
G1 X92.921 Y131.353 E6.12634
G1 X92.33 Y130.94 E6.13916
G1 X91.745 Y130.421 E6.15306
G1 X91.622 Y130.298 E6.15616
G1 X91.141 Y129.761 E6.16897
G1 X90.722 Y129.173 E6.1818
G1 X90.371 Y128.543 E6.19462
G1 X90.092 Y127.878 E6.20744
G1 X89.888 Y127.186 E6.22027
G1 X89.762 Y126.476 E6.23309
G1 X89.715 Y125.695 E6.24699
G1 X89.715 Y89.305 E6.89386
G1 X89.755 Y88.585 E6.90668
G1 X89.874 Y87.873 E6.91951
G1 X90.072 Y87.179 E6.93234
G1 X90.345 Y86.512 E6.94515
G1 X90.69 Y85.878 E6.95798
G1 X91.103 Y85.287 E6.9708
G1 X91.622 Y84.702 E6.9847
M204 S625
M205 X6 Y6
G0 F4285.7 X91.919 Y84.999
M204 S500
M205 X5 Y5
G1 F1200 X92.042 Y84.876 E6.98779
G1 X92.563 Y84.411 E7.00021
G1 X93.133 Y84.01 E7.0126
G1 X93.746 Y83.676 E7.025
G1 X94.393 Y83.414 E7.03741
G1 X95.065 Y83.229 E7.0498
G1 X95.754 Y83.121 E7.0622
G1 X96.348 Y83.092 E7.07277
G1 X136.742 Y83.092 E7.79081
G1 X137.439 Y83.132 E7.80322
G1 X138.126 Y83.251 E7.81562
G1 X138.795 Y83.449 E7.82802
G1 X139.438 Y83.721 E7.84043
G1 X140.044 Y84.065 E7.85282
G1 X140.608 Y84.477 E7.86523
G1 X141.048 Y84.876 E7.87579
G1 X141.171 Y84.999 E7.87888
G1 X141.636 Y85.52 E7.8913
G1 X142.037 Y86.09 E7.90369
G1 X142.371 Y86.703 E7.9161
G1 X142.633 Y87.35 E7.9285
G1 X142.818 Y88.022 E7.94089
G1 X142.926 Y88.711 E7.95329
G1 X142.955 Y89.305 E7.96386
G1 X142.955 Y125.695 E8.61073
G1 X142.915 Y126.392 E8.62314
G1 X142.796 Y127.079 E8.63553
G1 X142.598 Y127.748 E8.64794
G1 X142.326 Y128.391 E8.66035
G1 X141.982 Y128.997 E8.67273
G1 X141.57 Y129.561 E8.68515
G1 X141.171 Y130.001 E8.69571
G1 X141.048 Y130.124 E8.6988
G1 X140.527 Y130.589 E8.71121
G1 X139.957 Y130.99 E8.7236
G1 X139.344 Y131.324 E8.73601
G1 X138.697 Y131.586 E8.74842
G1 X138.025 Y131.771 E8.76081
G1 X137.336 Y131.879 E8.77321
G1 X136.742 Y131.908 E8.78378
G1 X96.348 Y131.908 E9.50182
G1 X95.651 Y131.868 E9.51423
G1 X94.964 Y131.749 E9.52662
G1 X94.295 Y131.551 E9.53903
G1 X93.652 Y131.279 E9.55144
G1 X93.046 Y130.935 E9.56382
G1 X92.482 Y130.523 E9.57624
G1 X92.042 Y130.124 E9.5868
G1 X91.919 Y130.001 E9.58989
G1 X91.454 Y129.48 E9.6023
G1 X91.053 Y128.91 E9.61469
G1 X90.719 Y128.297 E9.6271
G1 X90.457 Y127.65 E9.63951
G1 X90.272 Y126.978 E9.6519
G1 X90.164 Y126.289 E9.6643
G1 X90.135 Y125.695 E9.67487
G1 X90.135 Y89.305 E10.32174
G1 X90.175 Y88.608 E10.33415
G1 X90.294 Y87.921 E10.34654
G1 X90.492 Y87.252 E10.35894
G1 X90.764 Y86.609 E10.37135
G1 X91.108 Y86.003 E10.38374
G1 X91.52 Y85.439 E10.39616
G1 X91.919 Y84.999 E10.40671
M204 S625
M205 X6 Y6
G0 F4285.7 X92.339 Y85.173
M204 S500
M205 X5 Y5
G1 F1200 X92.842 Y84.726 E10.41868
G1 X93.395 Y84.342 E10.43064
G1 X93.99 Y84.026 E10.44262
G1 X94.617 Y83.783 E10.45457
G1 X95.269 Y83.616 E10.46654
G1 X95.937 Y83.527 E10.47852
G1 X96.348 Y83.512 E10.48583
G1 X136.742 Y83.512 E11.20387
G1 X137.414 Y83.552 E11.21584
G1 X138.077 Y83.671 E11.22781
G1 X138.72 Y83.868 E11.23976
G1 X139.336 Y84.14 E11.25173
G1 X139.915 Y84.483 E11.2637
G1 X140.45 Y84.892 E11.27567
G1 X140.874 Y85.296 E11.28608
G1 X141.321 Y85.799 E11.29804
G1 X141.705 Y86.352 E11.31001
G1 X142.021 Y86.947 E11.32198
G1 X142.264 Y87.574 E11.33394
G1 X142.431 Y88.226 E11.3459
G1 X142.52 Y88.894 E11.35788
G1 X142.535 Y89.305 E11.36519
G1 X142.535 Y125.695 E12.01206
G1 X142.495 Y126.367 E12.02403
G1 X142.376 Y127.03 E12.036
G1 X142.179 Y127.673 E12.04795
G1 X141.907 Y128.289 E12.05992
G1 X141.564 Y128.868 E12.07189
G1 X141.155 Y129.403 E12.08386
G1 X140.751 Y129.827 E12.09427
G1 X140.248 Y130.274 E12.10623
G1 X139.695 Y130.658 E12.1182
G1 X139.1 Y130.974 E12.13017
G1 X138.473 Y131.217 E12.14213
G1 X137.821 Y131.384 E12.15409
G1 X137.153 Y131.473 E12.16607
G1 X136.742 Y131.488 E12.17338
G1 X96.348 Y131.488 E12.89142
G1 X95.676 Y131.448 E12.90339
G1 X95.013 Y131.329 E12.91536
G1 X94.37 Y131.132 E12.92732
G1 X93.754 Y130.86 E12.93929
G1 X93.175 Y130.517 E12.95125
G1 X92.64 Y130.108 E12.96322
G1 X92.216 Y129.704 E12.97363
G1 X91.769 Y129.201 E12.98559
G1 X91.385 Y128.648 E12.99756
G1 X91.069 Y128.053 E13.00954
G1 X90.826 Y127.426 E13.02149
G1 X90.659 Y126.774 E13.03345
G1 X90.57 Y126.106 E13.04543
G1 X90.555 Y125.695 E13.05274
G1 X90.555 Y89.305 E13.69961
G1 X90.595 Y88.633 E13.71158
G1 X90.714 Y87.97 E13.72355
G1 X90.911 Y87.327 E13.73551
G1 X91.183 Y86.711 E13.74748
G1 X91.526 Y86.132 E13.75944
G1 X91.935 Y85.597 E13.77141
G1 X92.339 Y85.173 E13.78182
M204 S625
M205 X6 Y6
G0 F4285.7 X92.513 Y85.593
M204 S500
M205 X5 Y5
G1 F1200 X92.636 Y85.47 E13.78491
G1 X93.121 Y85.041 E13.79642
G1 X93.656 Y84.675 E13.80795
G1 X94.231 Y84.378 E13.81945
G1 X94.839 Y84.154 E13.83097
G1 X95.47 Y84.006 E13.84249
G1 X96.348 Y83.932 E13.85815
G1 X136.742 Y83.932 E14.57619
G1 X137.389 Y83.972 E14.58772
G1 X138.025 Y84.091 E14.59922
G1 X138.642 Y84.288 E14.61073
G1 X139.231 Y84.559 E14.62226
G1 X139.781 Y84.901 E14.63377
G1 X140.454 Y85.47 E14.64944
G1 X140.577 Y85.593 E14.65253
G1 X141.006 Y86.078 E14.66404
G1 X141.372 Y86.613 E14.67556
G1 X141.669 Y87.188 E14.68707
G1 X141.893 Y87.796 E14.69858
G1 X142.041 Y88.427 E14.7101
G1 X142.115 Y89.305 E14.72577
G1 X142.115 Y125.695 E15.37263
G1 X142.075 Y126.342 E15.38416
G1 X141.956 Y126.978 E15.39566
G1 X141.759 Y127.595 E15.40717
G1 X141.488 Y128.184 E15.4187
G1 X141.146 Y128.734 E15.43021
G1 X140.577 Y129.407 E15.44588
G1 X140.454 Y129.53 E15.44897
G1 X139.969 Y129.959 E15.46048
G1 X139.434 Y130.325 E15.472
G1 X138.859 Y130.622 E15.48351
G1 X138.251 Y130.846 E15.49502
G1 X137.62 Y130.994 E15.50654
G1 X136.742 Y131.068 E15.52221
G1 X96.348 Y131.068 E16.24025
G1 X95.701 Y131.028 E16.25177
G1 X95.065 Y130.909 E16.26327
G1 X94.448 Y130.712 E16.27479
G1 X93.859 Y130.441 E16.28631
G1 X93.309 Y130.099 E16.29783
G1 X92.636 Y129.53 E16.31349
G1 X92.513 Y129.407 E16.31658
G1 X92.084 Y128.922 E16.32809
G1 X91.718 Y128.387 E16.33962
G1 X91.421 Y127.812 E16.35112
G1 X91.197 Y127.204 E16.36264
G1 X91.049 Y126.573 E16.37416
G1 X90.975 Y125.695 E16.38982
G1 X90.975 Y89.305 E17.03669
G1 X91.015 Y88.658 E17.04821
G1 X91.134 Y88.022 E17.05971
G1 X91.331 Y87.405 E17.07123
G1 X91.602 Y86.816 E17.08275
G1 X91.944 Y86.266 E17.09427
G1 X92.513 Y85.593 E17.10993
M204 S625
M205 X6 Y6
G0 F4285.7 X92.81 Y85.89
M204 S500
M205 X5 Y5
G1 F1200 X92.933 Y85.767 E17.11302
G1 X93.399 Y85.357 E17.12406
G1 X93.915 Y85.01 E17.13511
G1 X94.471 Y84.732 E17.14616
G1 X95.057 Y84.528 E17.15719
G1 X95.665 Y84.4 E17.16824
G1 X96.348 Y84.352 E17.18041
G1 X136.742 Y84.352 E17.89845
G1 X137.362 Y84.392 E17.90949
G1 X137.972 Y84.511 E17.92054
G1 X138.561 Y84.708 E17.93158
G1 X139.12 Y84.978 E17.94262
G1 X139.64 Y85.318 E17.95366
G1 X140.157 Y85.767 E17.96583
G1 X140.28 Y85.89 E17.96892
G1 X140.69 Y86.356 E17.97996
G1 X141.037 Y86.872 E17.99101
G1 X141.315 Y87.428 E18.00206
G1 X141.519 Y88.014 E18.01309
G1 X141.647 Y88.622 E18.02414
G1 X141.695 Y89.305 E18.03631
G1 X141.695 Y125.695 E18.68317
G1 X141.655 Y126.315 E18.69422
G1 X141.536 Y126.925 E18.70527
G1 X141.339 Y127.514 E18.71631
G1 X141.069 Y128.073 E18.72734
G1 X140.729 Y128.593 E18.73839
G1 X140.28 Y129.11 E18.75056
G1 X140.157 Y129.233 E18.75365
G1 X139.691 Y129.643 E18.76468
G1 X139.175 Y129.99 E18.77574
G1 X138.619 Y130.268 E18.78679
G1 X138.033 Y130.472 E18.79782
G1 X137.425 Y130.6 E18.80886
G1 X136.742 Y130.648 E18.82103
G1 X96.348 Y130.648 E19.53908
G1 X95.728 Y130.608 E19.55012
G1 X95.118 Y130.489 E19.56117
G1 X94.529 Y130.292 E19.57221
G1 X93.97 Y130.022 E19.58324
G1 X93.45 Y129.682 E19.59429
G1 X92.933 Y129.233 E19.60646
G1 X92.81 Y129.11 E19.60955
G1 X92.4 Y128.644 E19.62058
G1 X92.053 Y128.128 E19.63164
G1 X91.775 Y127.572 E19.64269
G1 X91.571 Y126.986 E19.65372
G1 X91.443 Y126.378 E19.66476
G1 X91.395 Y125.695 E19.67693
G1 X91.395 Y89.305 E20.3238
G1 X91.435 Y88.685 E20.33485
G1 X91.554 Y88.075 E20.34589
G1 X91.751 Y87.486 E20.35693
G1 X92.021 Y86.927 E20.36797
G1 X92.361 Y86.407 E20.37901
G1 X92.81 Y85.89 E20.39118
M204 S625
M205 X6 Y6
G0 F4285.7 X93.23 Y86.064
M204 S500
M205 X5 Y5
G1 F1200 X93.677 Y85.673 E20.40174
G1 X94.172 Y85.346 E20.41229
G1 X94.707 Y85.089 E20.42284
G1 X95.272 Y84.905 E20.4334
G1 X95.856 Y84.8 E20.44395
G1 X96.348 Y84.772 E20.45271
G1 X136.742 Y84.772 E21.17075
G1 X137.334 Y84.812 E21.1813
G1 X137.916 Y84.931 E21.19186
G1 X138.476 Y85.127 E21.2024
G1 X139.005 Y85.397 E21.21296
G1 X139.493 Y85.735 E21.22351
G1 X139.983 Y86.187 E21.23536
G1 X140.374 Y86.634 E21.24592
G1 X140.701 Y87.129 E21.25647
G1 X140.958 Y87.664 E21.26702
G1 X141.142 Y88.229 E21.27758
G1 X141.247 Y88.813 E21.28813
G1 X141.275 Y89.305 E21.29689
G1 X141.275 Y125.695 E21.94375
G1 X141.235 Y126.287 E21.9543
G1 X141.116 Y126.869 E21.96486
G1 X140.92 Y127.429 E21.97541
G1 X140.65 Y127.958 E21.98597
G1 X140.312 Y128.446 E21.99652
G1 X139.86 Y128.936 E22.00837
G1 X139.413 Y129.327 E22.01893
G1 X138.918 Y129.654 E22.02947
G1 X138.383 Y129.911 E22.04002
G1 X137.818 Y130.095 E22.05058
G1 X137.234 Y130.2 E22.06113
G1 X136.742 Y130.228 E22.06989
G1 X96.348 Y130.228 E22.78793
G1 X95.756 Y130.188 E22.79848
G1 X95.174 Y130.069 E22.80904
G1 X94.614 Y129.873 E22.81959
G1 X94.085 Y129.603 E22.83015
G1 X93.597 Y129.265 E22.8407
G1 X93.107 Y128.813 E22.85255
G1 X92.716 Y128.366 E22.8631
G1 X92.389 Y127.871 E22.87365
G1 X92.132 Y127.336 E22.8842
G1 X91.948 Y126.771 E22.89476
G1 X91.843 Y126.187 E22.90531
G1 X91.815 Y125.695 E22.91407
G1 X91.815 Y89.305 E23.56094
G1 X91.855 Y88.713 E23.57149
G1 X91.974 Y88.131 E23.58205
G1 X92.17 Y87.571 E23.59259
G1 X92.44 Y87.042 E23.60315
G1 X92.778 Y86.554 E23.6137
G1 X93.23 Y86.064 E23.62555
M204 S625
M205 X6 Y6
G0 F4285.7 X93.527 Y86.361
M204 S500
M205 X5 Y5
G1 F1200 X93.953 Y85.991 E23.63558
G1 X94.428 Y85.685 E23.64563
G1 X94.941 Y85.448 E23.65567
G1 X95.482 Y85.287 E23.66571
G1 X96.04 Y85.204 E23.67573
G1 X96.348 Y85.192 E23.68121
G1 X136.742 Y85.192 E24.39926
G1 X137.305 Y85.232 E24.40929
G1 X137.857 Y85.351 E24.41933
G1 X138.387 Y85.547 E24.42937
G1 X138.883 Y85.815 E24.43939
G1 X139.337 Y86.151 E24.44943
G1 X139.686 Y86.484 E24.45801
G1 X140.056 Y86.91 E24.46804
G1 X140.362 Y87.385 E24.47808
G1 X140.599 Y87.898 E24.48813
G1 X140.76 Y88.439 E24.49816
G1 X140.843 Y88.997 E24.50819
G1 X140.855 Y89.305 E24.51367
G1 X140.855 Y125.695 E25.16054
G1 X140.815 Y126.258 E25.17057
G1 X140.696 Y126.81 E25.18061
G1 X140.5 Y127.34 E25.19065
G1 X140.232 Y127.836 E25.20067
G1 X139.896 Y128.29 E25.21071
G1 X139.563 Y128.639 E25.21929
G1 X139.137 Y129.009 E25.22932
G1 X138.662 Y129.315 E25.23936
G1 X138.149 Y129.552 E25.24941
G1 X137.608 Y129.713 E25.25944
G1 X137.05 Y129.796 E25.26947
G1 X136.742 Y129.808 E25.27495
G1 X96.348 Y129.808 E25.99299
G1 X95.785 Y129.768 E26.00302
G1 X95.233 Y129.649 E26.01306
G1 X94.703 Y129.453 E26.02311
G1 X94.207 Y129.185 E26.03313
G1 X93.753 Y128.849 E26.04317
G1 X93.404 Y128.516 E26.05174
G1 X93.034 Y128.09 E26.06177
G1 X92.728 Y127.615 E26.07182
G1 X92.491 Y127.102 E26.08186
G1 X92.33 Y126.561 E26.0919
G1 X92.247 Y126.003 E26.10192
G1 X92.235 Y125.695 E26.1074
G1 X92.235 Y89.305 E26.75427
G1 X92.275 Y88.742 E26.7643
G1 X92.394 Y88.19 E26.77434
G1 X92.59 Y87.66 E26.78439
G1 X92.858 Y87.164 E26.79441
G1 X93.194 Y86.71 E26.80445
G1 X93.527 Y86.361 E26.81302
M204 S625
M205 X6 Y6
G0 F4285.7 X93.701 Y86.781
M204 S500
M205 X5 Y5
G1 F1200 X93.824 Y86.658 E26.81611
G1 X94.228 Y86.309 E26.8256
G1 X94.681 Y86.025 E26.83511
G1 X95.17 Y85.812 E26.84459
G1 X95.686 Y85.674 E26.85408
G1 X96.348 Y85.612 E26.8659
G1 X136.742 Y85.612 E27.58395
G1 X137.275 Y85.652 E27.59345
G1 X137.795 Y85.771 E27.60293
G1 X138.292 Y85.966 E27.61242
G1 X138.755 Y86.233 E27.62192
G1 X139.266 Y86.658 E27.63374
G1 X139.389 Y86.781 E27.63683
G1 X139.738 Y87.185 E27.64632
G1 X140.022 Y87.638 E27.65582
G1 X140.235 Y88.127 E27.6653
G1 X140.373 Y88.643 E27.6748
G1 X140.435 Y89.305 E27.68662
G1 X140.435 Y125.695 E28.33349
G1 X140.395 Y126.228 E28.34299
G1 X140.276 Y126.748 E28.35247
G1 X140.081 Y127.245 E28.36196
G1 X139.814 Y127.708 E28.37146
G1 X139.389 Y128.219 E28.38328
G1 X139.266 Y128.342 E28.38637
