;START_OF_HEADER
;HEADER_VERSION:0.1
;FLAVOR:Griffin
;GENERATOR.NAME:Cura_SteamEngine
;GENERATOR.VERSION:4.8.0
;GENERATOR.BUILD_DATE:2020-11-10
;TARGET_MACHINE.NAME:Ultimaker 3
;EXTRUDER_TRAIN.0.INITIAL_TEMPERATURE:205
;EXTRUDER_TRAIN.0.MATERIAL.VOLUME_USED:10829
;EXTRUDER_TRAIN.0.MATERIAL.GUID:506c9f0d-e3aa-4bd4-b2d2-23e2425b1aa9
;EXTRUDER_TRAIN.0.NOZZLE.DIAMETER:0.4
;EXTRUDER_TRAIN.0.NOZZLE.NAME:AA 0.4
;BUILD_PLATE.TYPE:glass
;BUILD_PLATE.INITIAL_TEMPERATURE:60
;PRINT.TIME:9308
;PRINT.GROUPS:1
;PRINT.SIZE.MIN.X:9
;PRINT.SIZE.MIN.Y:6
;PRINT.SIZE.MIN.Z:0.27
;PRINT.SIZE.MAX.X:178.65
;PRINT.SIZE.MAX.Y:144.817
;PRINT.SIZE.MAX.Z:6.07
;END_OF_HEADER
;Generated with Cura_SteamEngine 4.8.0
T0
M82 ;absolute extrusion mode

G92 E0
M109 S205
G0 F15000 X9 Y6 Z2
G280
G1 F1500 E-6.5
;LAYER_COUNT:48
;LAYER:0
M107
M204 S625
M205 X6 Y6
G1 F600 Z2.27
G0 F4285.7 X58.526 Y76.052 Z2.27
M204 S500
M205 X5 Y5
;TYPE:SKIRT
G1 F600 Z0.27
G1 F1500 E0
G1 F1200 X59.056 Y75.737 E0.01096
G1 X59.404 Y75.55 E0.01798
G1 X60.077 Y75.233 E0.03121
G1 X60.712 Y75.011 E0.04316
G1 X61.096 Y74.897 E0.05028
G1 X61.82 Y74.723 E0.06352
G1 X62.4 Y74.642 E0.07393
G1 X62.782 Y74.605 E0.08075
G1 X63.452 Y74.573 E0.09268
G1 X67.46 Y74.574 E0.16392
G1 X68.126 Y74.606 E0.17577
G1 X68.508 Y74.643 E0.1826
G1 X69.244 Y74.755 E0.19583
G1 X69.849 Y74.909 E0.20693
G1 X70.222 Y75.022 E0.21386
G1 X70.922 Y75.275 E0.22709
G1 X71.486 Y75.546 E0.23821
G1 X71.835 Y75.733 E0.24525
G1 X72.471 Y76.119 E0.25847
G1 X72.967 Y76.491 E0.26949
G1 X73.267 Y76.738 E0.2764
G1 X73.815 Y77.241 E0.28962
G1 X74.209 Y77.679 E0.3001
G1 X74.458 Y77.981 E0.30705
G1 X74.9 Y78.58 E0.32029
G1 X75.029 Y78.798 E0.32479
G1 X79.45 Y78.798 E0.40338
G1 X80.193 Y78.838 E0.4166
G1 X80.928 Y78.958 E0.42984
G1 X81.645 Y79.155 E0.44306
G1 X82.337 Y79.429 E0.45629
G1 X82.996 Y79.775 E0.46952
G1 X83.614 Y80.19 E0.48275
G1 X84.184 Y80.668 E0.49598
G1 X84.7 Y81.205 E0.50922
G1 X85.154 Y81.795 E0.52245
G1 X85.543 Y82.429 E0.53567
G1 X85.862 Y83.102 E0.54891
G1 X86.107 Y83.805 E0.56214
G1 X86.275 Y84.53 E0.57537
G1 X86.364 Y85.269 E0.58861
G1 X86.379 Y85.728 E0.59677
G1 X86.379 Y87.277 E0.6243
G1 X86.339 Y88.02 E0.63753
G1 X86.22 Y88.755 E0.65077
G1 X86.022 Y89.473 E0.66401
G1 X85.749 Y90.165 E0.67723
G1 X85.403 Y90.824 E0.69046
G1 X84.988 Y91.442 E0.70369
G1 X84.509 Y92.012 E0.71693
G1 X83.972 Y92.527 E0.73015
G1 X83.383 Y92.982 E0.74338
G1 X82.749 Y93.371 E0.75661
G1 X82.076 Y93.69 E0.76985
G1 X81.373 Y93.935 E0.78308
G1 X80.648 Y94.103 E0.79631
G1 X79.909 Y94.192 E0.80954
G1 X79.449 Y94.207 E0.81772
G1 X76.379 Y94.207 E0.87229
G1 X76.38 Y104.573 E1.05656
G1 X92.465 Y104.574 E1.34249
G1 X93.008 Y104.595 E1.35214
G1 X93.619 Y104.643 E1.36304
G1 X94.702 Y104.815 E1.38253
G1 X95.311 Y104.962 E1.39367
G1 X96.329 Y105.293 E1.4127
G1 X96.908 Y105.532 E1.42383
G1 X97.886 Y106.03 E1.44334
G1 X98.421 Y106.358 E1.4545
G1 X99.297 Y106.994 E1.47374
G1 X99.774 Y107.401 E1.48488
G1 X100.545 Y108.172 E1.50427
G1 X100.955 Y108.652 E1.51549
G1 X101.593 Y109.529 E1.53477
G1 X101.92 Y110.062 E1.54588
G1 X102.416 Y111.036 E1.56531
G1 X102.656 Y111.616 E1.57647
G1 X102.99 Y112.642 E1.59565
G1 X103.137 Y113.252 E1.6068
G1 X103.309 Y114.335 E1.6263
G1 X103.338 Y114.429 E1.62805
G1 X103.997 Y114.775 E1.64128
G1 X104.615 Y115.19 E1.65451
G1 X105.185 Y115.669 E1.66774
G1 X105.7 Y116.206 E1.68097
G1 X106.155 Y116.795 E1.6942
G1 X106.544 Y117.43 E1.70744
G1 X106.862 Y118.103 E1.72067
G1 X107.107 Y118.806 E1.7339
G1 X107.275 Y119.531 E1.74713
G1 X107.364 Y120.27 E1.76036
G1 X107.379 Y120.896 E1.77149
G1 X107.552 Y120.814 E1.7749
G1 X107.56 Y120.717 E1.77663
G1 X107.731 Y119.643 E1.79596
G1 X107.877 Y119.035 E1.80707
G1 X108.21 Y118.007 E1.82628
G1 X108.45 Y117.426 E1.83746
G1 X108.947 Y116.45 E1.85693
G1 X109.275 Y115.915 E1.86808
G1 X109.917 Y115.032 E1.88749
G1 X110.325 Y114.555 E1.89865
G1 X111.085 Y113.795 E1.91775
G1 X111.564 Y113.385 E1.92896
G1 X112.446 Y112.743 E1.94835
G1 X112.979 Y112.416 E1.95947
G1 X113.957 Y111.918 E1.97898
G1 X114.538 Y111.678 E1.99015
G1 X115.568 Y111.344 E2.0094
G1 X116.177 Y111.198 E2.02053
G1 X117.243 Y111.029 E2.03972
G1 X117.871 Y110.979 E2.05091
G1 X118.42 Y110.957 E2.06068
G1 X125.79 Y110.956 E2.19169
G1 X125.791 Y89.878 E2.56637
G1 X125.825 Y89.194 E2.57855
G1 X125.863 Y88.811 E2.58539
G1 X125.976 Y88.075 E2.59862
G1 X126.123 Y87.497 E2.60923
G1 X126.235 Y87.125 E2.61613
G1 X126.488 Y86.425 E2.62936
G1 X126.763 Y85.85 E2.64069
G1 X126.95 Y85.501 E2.64773
G1 X127.336 Y84.865 E2.66096
G1 X127.708 Y84.369 E2.67198
G1 X127.955 Y84.069 E2.67888
G1 X128.458 Y83.521 E2.69211
G1 X128.896 Y83.127 E2.70258
G1 X129.198 Y82.878 E2.70954
G1 X129.797 Y82.436 E2.72277
G1 X130.348 Y82.109 E2.73416
G1 X130.697 Y81.923 E2.74119
G1 X131.371 Y81.609 E2.75441
G1 X131.979 Y81.397 E2.76585
G1 X132.362 Y81.283 E2.77296
G1 X133.086 Y81.109 E2.78619
G1 X133.653 Y81.029 E2.79637
G1 X134.035 Y80.991 E2.8032
G1 X134.723 Y80.957 E2.81544
G1 X138.731 Y80.958 E2.88669
G1 X139.415 Y80.992 E2.89886
G1 X139.797 Y81.03 E2.90568
G1 X140.533 Y81.143 E2.91892
G1 X141.12 Y81.294 E2.92969
G1 X141.493 Y81.407 E2.93662
G1 X142.193 Y81.66 E2.94985
G1 X142.743 Y81.923 E2.96069
G1 X143.092 Y82.109 E2.96772
G1 X143.729 Y82.494 E2.98095
G1 X144.238 Y82.875 E2.99225
G1 X144.538 Y83.122 E2.99916
G1 X145.086 Y83.625 E3.01238
G1 X145.48 Y84.063 E3.02286
G1 X145.729 Y84.365 E3.02981
G1 X146.171 Y84.964 E3.04305
G1 X146.301 Y85.183 E3.04757
G1 X150.721 Y85.183 E3.12614
G1 X151.464 Y85.223 E3.13937
G1 X152.199 Y85.343 E3.15261
G1 X152.916 Y85.54 E3.16583
G1 X153.608 Y85.814 E3.17906
G1 X154.267 Y86.16 E3.19229
G1 X154.885 Y86.575 E3.20552
G1 X155.455 Y87.053 E3.21874
G1 X155.971 Y87.59 E3.23198
G1 X156.425 Y88.18 E3.24522
G1 X156.814 Y88.814 E3.25844
G1 X157.133 Y89.487 E3.27168
G1 X157.378 Y90.19 E3.28491
G1 X157.546 Y90.915 E3.29814
G1 X157.635 Y91.654 E3.31137
G1 X157.65 Y92.113 E3.31953
G1 X157.65 Y93.662 E3.34707
G1 X157.61 Y94.405 E3.3603
G1 X157.491 Y95.14 E3.37353
G1 X157.293 Y95.858 E3.38677
G1 X157.02 Y96.55 E3.39999
G1 X156.674 Y97.209 E3.41323
G1 X156.259 Y97.827 E3.42646
G1 X155.78 Y98.397 E3.43969
G1 X155.243 Y98.912 E3.45292
G1 X154.654 Y99.367 E3.46615
G1 X154.02 Y99.756 E3.47937
G1 X153.347 Y100.075 E3.49261
G1 X152.644 Y100.32 E3.50584
G1 X151.919 Y100.488 E3.51907
G1 X151.18 Y100.577 E3.5323
G1 X150.72 Y100.592 E3.54049
G1 X147.65 Y100.592 E3.59506
G1 X147.651 Y110.957 E3.77931
G1 X163.736 Y110.958 E4.06523
G1 X164.29 Y110.98 E4.07509
G1 X164.901 Y111.029 E4.08598
G1 X165.963 Y111.198 E4.1051
G1 X166.572 Y111.344 E4.11623
G1 X167.6 Y111.677 E4.13544
G1 X168.179 Y111.916 E4.14658
G1 X169.157 Y112.414 E4.16608
G1 X169.692 Y112.742 E4.17724
G1 X170.569 Y113.379 E4.19651
G1 X171.047 Y113.787 E4.20768
G1 X171.818 Y114.558 E4.22706
G1 X172.227 Y115.037 E4.23826
G1 X172.864 Y115.913 E4.25751
G1 X173.191 Y116.446 E4.26863
G1 X173.687 Y117.42 E4.28806
G1 X173.927 Y118 E4.29921
G1 X174.262 Y119.029 E4.31845
G1 X174.409 Y119.64 E4.32962
G1 X174.58 Y120.719 E4.34904
G1 X174.609 Y120.814 E4.35081
G1 X175.268 Y121.16 E4.36404
G1 X175.886 Y121.575 E4.37727
G1 X176.456 Y122.054 E4.3905
G1 X176.971 Y122.591 E4.40373
G1 X177.426 Y123.18 E4.41696
G1 X177.815 Y123.815 E4.4302
G1 X178.133 Y124.488 E4.44343
G1 X178.378 Y125.191 E4.45666
G1 X178.546 Y125.916 E4.46989
G1 X178.635 Y126.655 E4.48312
G1 X178.65 Y127.113 E4.49127
G1 X178.65 Y128.662 E4.5188
G1 X178.61 Y129.405 E4.53203
G1 X178.491 Y130.14 E4.54527
G1 X178.293 Y130.858 E4.55851
G1 X178.02 Y131.55 E4.57173
G1 X177.674 Y132.209 E4.58496
G1 X177.259 Y132.827 E4.59819
G1 X176.78 Y133.397 E4.61143
G1 X176.243 Y133.912 E4.62465
G1 X175.654 Y134.367 E4.63788
G1 X175.02 Y134.756 E4.65111
G1 X174.588 Y134.961 E4.65961
G1 X174.58 Y135.057 E4.66132
G1 X174.409 Y136.135 E4.68072
G1 X174.263 Y136.742 E4.69182
G1 X173.93 Y137.767 E4.71098
G1 X173.69 Y138.348 E4.72215
G1 X173.193 Y139.324 E4.74162
G1 X172.865 Y139.859 E4.75278
G1 X172.233 Y140.73 E4.77191
G1 X171.826 Y141.208 E4.78306
G1 X171.044 Y141.991 E4.80274
G1 X170.565 Y142.399 E4.81392
G1 X169.698 Y143.028 E4.83296
G1 X169.164 Y143.356 E4.8441
G1 X168.183 Y143.856 E4.86367
G1 X167.602 Y144.096 E4.87485
G1 X166.582 Y144.428 E4.89392
G1 X165.973 Y144.575 E4.90505
G1 X164.886 Y144.747 E4.92462
G1 X164.258 Y144.796 E4.93581
G1 X163.719 Y144.817 E4.9454
G1 X118.404 Y144.816 E5.75092
G1 X117.861 Y144.795 E5.76058
G1 X117.25 Y144.747 E5.77147
G1 X116.167 Y144.575 E5.79097
G1 X115.558 Y144.428 E5.8021
G1 X114.538 Y144.096 E5.82117
G1 X113.957 Y143.856 E5.83235
G1 X112.976 Y143.356 E5.85192
G1 X112.442 Y143.028 E5.86306
G1 X111.57 Y142.394 E5.88222
G1 X111.092 Y141.986 E5.89339
G1 X110.32 Y141.214 E5.9128
G1 X109.912 Y140.736 E5.92397
G1 X109.275 Y139.859 E5.94324
G1 X108.947 Y139.324 E5.9544
G1 X108.45 Y138.348 E5.97386
G1 X108.21 Y137.767 E5.98504
G1 X107.877 Y136.742 E6.0042
G1 X107.731 Y136.135 E6.01529
G1 X107.56 Y135.055 E6.03473
G1 X107.531 Y134.961 E6.03648
G1 X106.872 Y134.615 E6.04971
G1 X106.254 Y134.2 E6.06294
G1 X105.684 Y133.721 E6.07618
G1 X105.169 Y133.184 E6.0894
G1 X104.714 Y132.595 E6.10263
G1 X104.325 Y131.96 E6.11587
G1 X104.007 Y131.287 E6.1291
G1 X103.762 Y130.584 E6.14234
G1 X103.594 Y129.859 E6.15557
G1 X103.505 Y129.12 E6.1688
G1 X103.49 Y128.494 E6.17993
G1 X103.317 Y128.576 E6.18333
G1 X103.309 Y128.673 E6.18506
G1 X103.138 Y129.747 E6.20439
G1 X102.992 Y130.355 E6.21551
G1 X102.659 Y131.383 E6.23472
G1 X102.419 Y131.964 E6.24589
G1 X101.922 Y132.94 E6.26536
G1 X101.594 Y133.475 E6.27652
G1 X100.952 Y134.358 E6.29592
G1 X100.544 Y134.835 E6.30708
G1 X99.783 Y135.596 E6.32621
G1 X99.305 Y136.005 E6.33739
G1 X98.427 Y136.644 E6.3567
G1 X97.893 Y136.972 E6.36784
G1 X96.912 Y137.472 E6.38741
G1 X96.331 Y137.712 E6.39858
G1 X95.311 Y138.044 E6.41765
G1 X94.702 Y138.191 E6.42879
G1 X93.615 Y138.363 E6.44835
G1 X92.987 Y138.412 E6.45955
G1 X92.448 Y138.433 E6.46914
G1 X47.133 Y138.432 E7.27466
G1 X46.59 Y138.411 E7.28432
G1 X45.979 Y138.363 E7.29521
G1 X44.896 Y138.191 E7.3147
G1 X44.287 Y138.044 E7.32584
G1 X43.267 Y137.712 E7.34491
G1 X42.686 Y137.472 E7.35608
G1 X41.705 Y136.972 E7.37565
G1 X41.171 Y136.644 E7.38679
G1 X40.298 Y136.009 E7.40598
G1 X39.819 Y135.6 E7.41718
G1 X39.047 Y134.828 E7.43659
G1 X38.64 Y134.351 E7.44773
G1 X38.004 Y133.475 E7.46698
G1 X37.676 Y132.94 E7.47813
G1 X37.179 Y131.964 E7.4976
G1 X36.939 Y131.383 E7.50877
G1 X36.606 Y130.355 E7.52798
G1 X36.46 Y129.747 E7.5391
G1 X36.289 Y128.671 E7.55847
G1 X36.26 Y128.576 E7.56023
G1 X35.601 Y128.23 E7.57346
G1 X34.983 Y127.815 E7.58669
G1 X34.413 Y127.336 E7.59993
G1 X33.898 Y126.799 E7.61316
G1 X33.443 Y126.21 E7.62639
G1 X33.054 Y125.575 E7.63962
G1 X32.736 Y124.902 E7.65285
G1 X32.491 Y124.199 E7.66609
G1 X32.323 Y123.474 E7.67932
G1 X32.234 Y122.735 E7.69255
G1 X32.219 Y122.277 E7.70069
G1 X32.219 Y120.728 E7.72823
G1 X32.259 Y119.985 E7.74146
G1 X32.378 Y119.25 E7.75469
G1 X32.576 Y118.532 E7.76793
G1 X32.849 Y117.84 E7.78115
G1 X33.195 Y117.181 E7.79439
G1 X33.61 Y116.563 E7.80762
G1 X34.089 Y115.993 E7.82085
G1 X34.626 Y115.478 E7.83408
G1 X35.215 Y115.023 E7.84731
G1 X35.849 Y114.634 E7.86053
G1 X36.281 Y114.429 E7.86903
G1 X36.289 Y114.333 E7.87074
G1 X36.46 Y113.255 E7.89015
G1 X36.606 Y112.648 E7.90124
G1 X36.939 Y111.623 E7.9204
G1 X37.179 Y111.042 E7.93158
G1 X37.676 Y110.066 E7.95105
G1 X38.004 Y109.531 E7.9622
G1 X38.636 Y108.66 E7.98133
G1 X39.043 Y108.182 E7.99249
G1 X39.824 Y107.4 E8.01214
G1 X40.304 Y106.991 E8.02335
G1 X41.175 Y106.359 E8.04247
G1 X41.708 Y106.032 E8.05359
G1 X42.686 Y105.534 E8.0731
G1 X43.267 Y105.294 E8.08427
G1 X44.287 Y104.962 E8.10334
G1 X44.896 Y104.815 E8.11448
G1 X45.983 Y104.643 E8.13404
G1 X46.611 Y104.594 E8.14524
G1 X47.149 Y104.573 E8.15481
G1 X54.519 Y104.572 E8.28582
G1 X54.52 Y83.494 E8.6605
G1 X54.552 Y82.828 E8.67235
G1 X54.589 Y82.445 E8.67919
G1 X54.7 Y81.709 E8.69242
G1 X54.855 Y81.102 E8.70356
G1 X54.968 Y80.729 E8.71049
G1 X55.221 Y80.029 E8.72372
G1 X55.496 Y79.458 E8.73498
G1 X55.683 Y79.11 E8.74201
G1 X56.07 Y78.474 E8.75524
G1 X56.437 Y77.985 E8.76611
G1 X56.684 Y77.685 E8.77302
G1 X57.187 Y77.137 E8.78624
G1 X57.625 Y76.743 E8.79671
G1 X57.927 Y76.494 E8.80367
G1 X58.526 Y76.052 E8.8169
M204 S625
M205 X6 Y6
G0 F4285.7 X58.776 Y76.391
M204 S500
M205 X5 Y5
G1 F1200 X59.255 Y76.106 E8.82681
G1 X59.603 Y75.919 E8.83383
G1 X60.256 Y75.614 E8.84664
G1 X60.831 Y75.413 E8.85747
G1 X61.215 Y75.299 E8.86459
G1 X61.917 Y75.133 E8.87742
G1 X62.44 Y75.06 E8.8868
G1 X62.822 Y75.023 E8.89362
G1 X63.452 Y74.993 E8.90484
G1 X67.46 Y74.994 E8.97608
G1 X68.086 Y75.024 E8.98722
G1 X68.468 Y75.061 E8.99404
G1 X69.181 Y75.171 E9.00687
G1 X69.727 Y75.311 E9.01689
G1 X70.1 Y75.424 E9.02382
G1 X70.778 Y75.671 E9.03664
G1 X71.288 Y75.916 E9.0467
G1 X71.637 Y76.103 E9.05374
G1 X72.253 Y76.478 E9.06656
G1 X72.7 Y76.815 E9.07651
G1 X73 Y77.062 E9.08342
G1 X73.531 Y77.551 E9.09625
G1 X73.885 Y77.947 E9.10569
G1 X74.134 Y78.249 E9.11265
G1 X74.561 Y78.83 E9.12547
G1 X74.792 Y79.218 E9.13349
G1 X79.45 Y79.218 E9.21629
G1 X80.17 Y79.258 E9.22911
G1 X80.881 Y79.378 E9.24193
G1 X81.575 Y79.575 E9.25475
G1 X82.243 Y79.848 E9.26758
G1 X82.876 Y80.193 E9.2804
G1 X83.468 Y80.606 E9.29323
G1 X84.01 Y81.083 E9.30606
G1 X84.496 Y81.616 E9.31888
G1 X84.92 Y82.199 E9.3317
G1 X85.276 Y82.826 E9.34451
G1 X85.562 Y83.489 E9.35735
G1 X85.772 Y84.179 E9.37017
G1 X85.905 Y84.888 E9.38299
G1 X85.959 Y85.728 E9.39796
G1 X85.959 Y87.277 E9.42549
G1 X85.919 Y87.997 E9.43831
G1 X85.8 Y88.709 E9.45114
G1 X85.602 Y89.403 E9.46397
G1 X85.329 Y90.07 E9.47678
G1 X84.984 Y90.704 E9.48961
G1 X84.571 Y91.295 E9.50243
G1 X84.095 Y91.837 E9.51525
G1 X83.562 Y92.323 E9.52807
G1 X82.978 Y92.747 E9.5409
G1 X82.351 Y93.104 E9.55373
G1 X81.689 Y93.39 E9.56655
G1 X80.999 Y93.6 E9.57937
G1 X80.29 Y93.732 E9.59219
G1 X79.449 Y93.787 E9.60717
G1 X75.959 Y93.787 E9.66921
G1 X75.96 Y104.993 E9.8684
G1 X92.465 Y104.994 E10.1618
G1 X92.975 Y105.014 E10.17087
G1 X93.586 Y105.062 E10.18176
G1 X94.604 Y105.224 E10.20009
G1 X95.213 Y105.371 E10.21122
G1 X96.169 Y105.682 E10.2291
G1 X96.748 Y105.921 E10.24023
G1 X97.667 Y106.388 E10.25855
G1 X98.202 Y106.716 E10.26971
G1 X99.025 Y107.314 E10.28779
G1 X99.502 Y107.721 E10.29894
G1 X100.226 Y108.445 E10.31714
G1 X100.636 Y108.925 E10.32836
G1 X101.235 Y109.749 E10.34647
G1 X101.562 Y110.282 E10.35759
G1 X102.028 Y111.197 E10.37584
G1 X102.268 Y111.777 E10.387
G1 X102.582 Y112.741 E10.40502
G1 X102.729 Y113.351 E10.41617
G1 X102.89 Y114.368 E10.43448
G1 X102.917 Y114.714 E10.44064
G1 X103.244 Y114.848 E10.44693
G1 X103.877 Y115.194 E10.45975
G1 X104.468 Y115.607 E10.47257
G1 X105.01 Y116.083 E10.48539
G1 X105.496 Y116.616 E10.49821
G1 X105.92 Y117.2 E10.51104
G1 X106.277 Y117.827 E10.52387
G1 X106.562 Y118.49 E10.53669
G1 X106.772 Y119.18 E10.54951
G1 X106.905 Y119.889 E10.56234
G1 X106.959 Y120.728 E10.57728
G1 X106.959 Y121.604 E10.59285
G1 X107.518 Y121.286 E10.60429
G1 X107.952 Y121.099 E10.61269
G1 X107.979 Y120.75 E10.61891
G1 X108.139 Y119.741 E10.63707
G1 X108.285 Y119.133 E10.64818
G1 X108.598 Y118.168 E10.66622
G1 X108.838 Y117.587 E10.67739
G1 X109.305 Y116.669 E10.6957
G1 X109.633 Y116.134 E10.70686
G1 X110.236 Y115.305 E10.72508
G1 X110.644 Y114.828 E10.73624
G1 X111.358 Y114.114 E10.75419
G1 X111.837 Y113.704 E10.76539
G1 X112.666 Y113.101 E10.78362
G1 X113.199 Y112.774 E10.79473
G1 X114.118 Y112.306 E10.81306
G1 X114.699 Y112.066 E10.82424
G1 X115.666 Y111.752 E10.84231
G1 X116.275 Y111.606 E10.85344
G1 X117.276 Y111.448 E10.87146
G1 X117.904 Y111.398 E10.88266
G1 X118.42 Y111.377 E10.89184
G1 X126.21 Y111.376 E11.03031
G1 X126.211 Y89.878 E11.41246
G1 X126.243 Y89.235 E11.4239
G1 X126.281 Y88.852 E11.43074
G1 X126.392 Y88.139 E11.44357
G1 X126.525 Y87.618 E11.45313
G1 X126.637 Y87.246 E11.46004
G1 X126.883 Y86.568 E11.47286
G1 X127.133 Y86.048 E11.48311
G1 X127.32 Y85.699 E11.49015
G1 X127.695 Y85.083 E11.50297
G1 X128.032 Y84.636 E11.51292
G1 X128.279 Y84.336 E11.51983
G1 X128.768 Y83.805 E11.53266
G1 X129.164 Y83.451 E11.5421
G1 X129.466 Y83.202 E11.54906
G1 X130.047 Y82.775 E11.56188
